public/home/logo7.svg

<svg width="216" height="65" viewBox="0 0 216 65" fill="none" xmlns="http://www.w3.org/2000/svg">
<g clip-path="url(#clip0_561_166)">
<path d="M21.0176 34.8951L28.38 31.6899L32.6177 34.0938L33.4738 41.9799L28.2516 41.9379L29.0221 36.4555L28.1232 35.9492L23.7143 39.3231L21.0176 34.8951Z" fill="white"/>
<path d="M32.9316 33.8997L39.5328 38.7304L42.1384 34.0738L36.84 31.9414V30.8969L42.1384 28.7209L39.5328 24.1079L32.9316 28.9385V33.8997Z" fill="white"/>
<path d="M32.6177 28.2035L33.4738 20.3174L28.2516 20.4017L29.0221 25.8841L28.1232 26.3901L23.6715 23.0164L21.0176 27.4022L28.38 30.6073L32.6177 28.2035Z" fill="white"/>
<path d="M74.6106 29.437V43.5358H79.8563V25.5684H72.2168V29.437H74.6106Z" fill="white"/>
<path d="M74.4462 23.0441C74.9271 23.5468 75.6593 23.7981 76.6428 23.7981C77.6268 23.7981 78.3477 23.5468 78.8064 23.0441C79.2878 22.5194 79.5278 21.8636 79.5278 21.0769C79.5278 20.2681 79.2878 19.6123 78.8064 19.1097C78.3477 18.5851 77.6268 18.3228 76.6428 18.3228C75.6593 18.3228 74.9271 18.5851 74.4462 19.1097C73.9874 19.6123 73.7578 20.2681 73.7578 21.0769C73.7578 21.8636 73.9874 22.5194 74.4462 23.0441Z" fill="white"/>
<path d="M56.3491 43.1422C57.8352 43.8197 59.6603 44.1588 61.8239 44.1588C63.8569 44.1588 65.6051 43.842 67.0701 43.2078C68.5345 42.5741 69.6599 41.6886 70.4468 40.5524C71.2559 39.3935 71.66 38.0493 71.66 36.5193C71.66 35.033 71.2781 33.7762 70.5129 32.7487C69.7693 31.6996 68.7317 30.8799 67.3978 30.29C66.0644 29.6778 64.5236 29.2952 62.7749 29.1424L60.9389 28.9785C59.846 28.8908 59.0591 28.596 58.5782 28.0931C58.0973 27.5904 57.8568 27.0002 57.8568 26.3228C57.8568 25.7979 57.9884 25.3172 58.25 24.8801C58.5127 24.421 58.9059 24.0604 59.4306 23.798C59.9771 23.5358 60.6438 23.4046 61.4307 23.4046C62.2609 23.4046 62.9498 23.5575 63.4962 23.8637C63.6165 23.9284 63.7307 23.9976 63.838 24.0709L63.864 24.0891C63.9041 24.1169 63.9436 24.1456 63.982 24.1747C64.314 24.4284 64.5783 24.7291 64.7749 25.0767C65.0587 25.5577 65.2017 26.0931 65.2017 26.6833H70.4468C70.4468 25.1095 70.0861 23.7433 69.3653 22.585C68.6439 21.4046 67.6057 20.4976 66.2507 19.8635C64.9168 19.2077 63.3105 18.8799 61.4307 18.8799C59.6381 18.8799 58.0865 19.1861 56.7748 19.798C55.4636 20.3883 54.4362 21.2407 53.6932 22.3553C52.9713 23.4701 52.6106 24.7927 52.6106 26.3228C52.6106 28.4428 53.3217 30.1477 54.7422 31.4375C56.1628 32.7271 58.0648 33.4702 60.4472 33.6669L62.2506 33.8308C63.7145 33.962 64.7749 34.2572 65.4308 34.716C66.0861 35.1531 66.4143 35.7542 66.4143 36.5193C66.4143 36.8709 66.3568 37.2006 66.2415 37.5087C66.1559 37.7373 66.0389 37.9539 65.89 38.1587C65.5396 38.6179 65.0262 38.9781 64.3487 39.2407C63.6712 39.5029 62.8296 39.6339 61.8239 39.6339C60.7093 39.6339 59.8022 39.4812 59.103 39.1752C58.4033 38.847 57.879 38.4208 57.5286 37.8965C57.201 37.3717 57.0374 36.8036 57.0374 36.1914H51.8242C51.8242 37.7433 52.2066 39.1205 52.9713 40.3228C53.7365 41.5029 54.8625 42.4431 56.3491 43.1422Z" fill="white"/>
<path d="M91.5612 43.7647C89.747 43.7647 88.2825 43.5465 87.168 43.1089C86.0529 42.6502 85.2335 41.8963 84.7087 40.8473C84.2061 39.776 83.9548 38.3333 83.9548 36.5189V29.4042H81.2334V25.5682H83.9548V20.7158H88.8398V25.5682H94.0861V29.4042H88.8398V36.7158C88.8398 37.5683 89.0586 38.2239 89.4957 38.6826C89.9544 39.1202 90.5994 39.3384 91.4302 39.3384H94.0861V43.7647H91.5612Z" fill="white"/>
<path fill-rule="evenodd" clip-rule="evenodd" d="M100.402 43.3721C101.582 43.8969 102.937 44.159 104.467 44.159C105.975 44.159 107.309 43.8969 108.468 43.3721C109.626 42.8473 110.588 42.1151 111.352 41.1755C112.118 40.2353 112.632 39.1646 112.893 37.9623H108.074C107.856 38.5088 107.44 38.9675 106.828 39.339C106.216 39.7111 105.429 39.8968 104.467 39.8968C103.872 39.8968 103.339 39.8264 102.87 39.6851C102.513 39.5779 102.193 39.43 101.91 39.241C101.254 38.8039 100.773 38.1914 100.467 37.405C100.382 37.1809 100.31 36.9464 100.249 36.7022C100.186 36.4549 100.136 36.1975 100.098 35.9295H113.221V34.159C113.221 32.5196 112.872 31.0114 112.172 29.6345C111.473 28.2353 110.456 27.1097 109.123 26.2573C107.812 25.383 106.194 24.9458 104.27 24.9458C102.806 24.9458 101.494 25.2082 100.336 25.7328C99.2 26.2353 98.249 26.9239 97.4838 27.7982C96.7191 28.6725 96.1288 29.6672 95.7128 30.782C95.3196 31.8747 95.123 33.0222 95.123 34.2244V34.8802C95.123 36.0388 95.3196 37.1753 95.7128 38.29C96.1288 39.3829 96.7191 40.3772 97.4838 41.2735C98.2707 42.1482 99.2428 42.8473 100.402 43.3721ZM100.188 32.6875C100.203 32.6181 100.218 32.5497 100.235 32.4824C100.281 32.297 100.333 32.1194 100.393 31.9497C100.426 31.853 100.462 31.7588 100.5 31.6672C100.828 30.8583 101.309 30.2464 101.943 29.8311C102.18 29.6759 102.437 29.5497 102.712 29.4526C103.176 29.2897 103.696 29.2082 104.27 29.2082C105.167 29.2082 105.91 29.4159 106.5 29.8311C107.112 30.2245 107.571 30.8037 107.877 31.5687C107.902 31.6305 107.925 31.6933 107.948 31.7569C107.984 31.8583 108.018 31.9623 108.049 32.069C108.095 32.2276 108.136 32.3918 108.172 32.5616C108.198 32.6867 108.22 32.8147 108.24 32.9459H100.138C100.153 32.8583 100.17 32.7722 100.188 32.6875Z" fill="white"/>
<path d="M115.386 43.5359V25.5685H119.55V30.0937C119.606 29.8247 119.671 29.5666 119.743 29.319C119.805 29.1104 119.871 28.9093 119.943 28.716C120.402 27.4919 121.091 26.574 122.009 25.9618C122.927 25.328 124.052 25.0112 125.386 25.0112H125.615C126.971 25.0112 128.096 25.328 128.992 25.9618C129.91 26.574 130.599 27.4919 131.058 28.716L131.094 28.8084L131.125 28.8929C131.146 28.8332 131.167 28.7744 131.189 28.716C131.67 27.4919 132.37 26.574 133.288 25.9618C134.205 25.328 135.331 25.0112 136.665 25.0112H136.894C138.249 25.0112 139.386 25.328 140.304 25.9618C141.244 26.574 141.954 27.4919 142.435 28.716C142.916 29.9401 143.157 31.4702 143.157 33.3062V43.5359H137.91V33.0111C137.91 32.0274 137.648 31.2297 137.123 30.6178C136.621 30.0056 135.9 29.6996 134.96 29.6996C134.02 29.6996 133.277 30.0167 132.73 30.6505C132.184 31.2624 131.91 32.0821 131.91 33.1096V43.5359H126.632V33.0111C126.632 32.0274 126.369 31.2297 125.845 30.6178C125.342 30.0056 124.632 29.6996 123.714 29.6996C122.752 29.6996 121.998 30.0167 121.451 30.6505C120.905 31.2624 120.631 32.0821 120.631 33.1096V43.5359H115.386Z" fill="white"/>
<path fill-rule="evenodd" clip-rule="evenodd" d="M157.17 40.0737V43.536H161.333V32.5194C161.333 30.8581 161.006 29.503 160.35 28.4537C159.694 27.3827 158.733 26.5849 157.465 26.0604C156.219 25.5358 154.678 25.2734 152.842 25.2734C152.444 25.2734 152.029 25.2777 151.595 25.2864C151.34 25.2916 151.077 25.2982 150.809 25.3061C150.088 25.3281 149.388 25.3608 148.711 25.4046L148.193 25.4395C147.927 25.4579 147.678 25.4761 147.443 25.4947C147.266 25.5084 147.099 25.5221 146.94 25.5358V29.9621C147.618 29.9183 148.372 29.8745 149.203 29.8309C149.435 29.8188 149.665 29.8074 149.894 29.7968C150.224 29.7816 150.55 29.7683 150.872 29.7568C151.126 29.7475 151.379 29.7393 151.629 29.7324C152.415 29.7105 153.049 29.6997 153.53 29.6997C154.492 29.6997 155.191 29.9291 155.629 30.3882C156.066 30.8473 156.284 31.5357 156.284 32.4539V32.5194H153.039C151.443 32.5194 150.033 32.7271 148.809 33.1424C147.585 33.5357 146.634 34.1587 145.957 35.0111C145.279 35.8419 144.94 36.9129 144.94 38.2242C144.94 39.4265 145.213 40.4647 145.76 41.3394C146.306 42.1918 147.06 42.8471 148.022 43.3064C149.006 43.7651 150.143 43.9947 151.432 43.9947C152.678 43.9947 153.727 43.7651 154.58 43.3064C155.454 42.8471 156.132 42.1918 156.612 41.3394C156.697 41.1953 156.776 41.0464 156.85 40.8915C156.954 40.6727 157.046 40.4425 157.128 40.201L157.17 40.0737ZM156.284 36.8802V35.4375H153.006C152.088 35.4375 151.378 35.6669 150.875 36.126C150.394 36.5631 150.153 37.1642 150.153 37.9291C150.153 38.2892 150.213 38.6169 150.333 38.9115C150.454 39.2072 150.634 39.4699 150.875 39.7C151.378 40.1371 152.088 40.3553 153.006 40.3553C153.18 40.3553 153.349 40.3467 153.512 40.3299C153.646 40.3158 153.775 40.2958 153.9 40.2703C154.141 40.2216 154.368 40.1517 154.58 40.0602C155.061 39.8419 155.454 39.4812 155.759 38.9781C156.066 38.4755 156.241 37.7763 156.284 36.8802Z" fill="white"/>
<path d="M164.473 43.5362V25.5688H168.637V31.4992C168.836 29.8063 169.339 28.4412 170.145 27.4048C171.238 26.0278 172.811 25.3394 174.867 25.3394H175.555V29.8638H174.243C172.801 29.8638 171.686 30.2572 170.899 31.0441C170.112 31.8091 169.718 32.924 169.718 34.3883V43.5362H164.473Z" fill="white"/>
<path d="M182.207 35.1425H183.945L189.616 43.5362H195.518L188.326 33.2278L194.239 25.5688H188.732L182.207 34.1119V19.6016H176.961V43.5362H182.207V35.1425Z" fill="white"/>
</g>
<defs>
<clipPath id="clip0_561_166">
<rect width="175" height="27" fill="white" transform="translate(21 18)"/>
</clipPath>
</defs>
</svg>

<svg width="216" height="65" fill="none" xmlns="http://www.w3.org/2000/svg"><g clip-path="url(#a)" fill="#fff"><path d="m21.018 34.895 7.362-3.205 4.238 2.404.856 7.886-5.222-.042.77-5.483-.899-.506-4.409 3.374-2.696-4.428ZM32.932 33.9l6.6 4.83 2.606-4.656-5.298-2.133v-1.044l5.298-2.176-2.605-4.613-6.601 4.83V33.9ZM32.618 28.203l.856-7.886-5.222.085.77 5.482-.899.506-4.451-3.374-2.654 4.386 7.362 3.205 4.238-2.404ZM74.61 29.437v14.099h5.246V25.568h-7.64v3.869h2.395ZM74.446 23.044c.481.503 1.213.754 2.197.754s1.705-.251 2.163-.754c.482-.525.722-1.18.722-1.967 0-.809-.24-1.465-.722-1.967-.458-.525-1.18-.787-2.163-.787-.984 0-1.716.262-2.197.787-.459.502-.688 1.158-.688 1.967 0 .787.23 1.442.688 1.967ZM56.35 43.142c1.485.678 3.31 1.017 5.474 1.017 2.033 0 3.781-.317 5.246-.951 1.465-.634 2.59-1.52 3.377-2.656.809-1.158 1.213-2.503 1.213-4.033 0-1.486-.382-2.743-1.147-3.77-.744-1.05-1.781-1.87-3.115-2.459-1.334-.612-2.874-.995-4.623-1.148l-1.836-.163c-1.093-.088-1.88-.383-2.36-.886a2.478 2.478 0 0 1-.722-1.77c0-.525.131-1.006.393-1.443.263-.459.656-.82 1.18-1.082.547-.262 1.214-.393 2-.393.83 0 1.52.152 2.066.459.12.064.235.134.342.207l.026.018a2.967 2.967 0 0 1 .91.988c.285.48.428 1.016.428 1.606h5.245c0-1.573-.36-2.94-1.082-4.098-.721-1.18-1.76-2.087-3.114-2.722-1.334-.655-2.94-.983-4.82-.983-1.793 0-3.344.306-4.656.918-1.311.59-2.339 1.443-3.082 2.557-.722 1.115-1.082 2.438-1.082 3.968 0 2.12.71 3.825 2.131 5.114 1.42 1.29 3.323 2.033 5.705 2.23l1.804.164c1.464.131 2.524.426 3.18.885.655.437.983 1.038.983 1.803a2.8 2.8 0 0 1-.172.99 2.729 2.729 0 0 1-.352.65c-.35.459-.864.82-1.541 1.082-.678.262-1.52.393-2.525.393-1.115 0-2.022-.153-2.721-.459-.7-.328-1.224-.754-1.574-1.278a3.16 3.16 0 0 1-.492-1.706h-5.213c0 1.552.383 2.93 1.147 4.132.766 1.18 1.892 2.12 3.378 2.82ZM91.561 43.765c-1.814 0-3.279-.218-4.393-.656-1.115-.459-1.934-1.213-2.46-2.262-.502-1.071-.753-2.514-.753-4.328v-7.115h-2.722v-3.836h2.722v-4.852h4.885v4.852h5.246v3.836H88.84v7.312c0 .852.219 1.508.656 1.967.458.437 1.103.655 1.934.655h2.656v4.427h-2.525Z"/><path fill-rule="evenodd" clip-rule="evenodd" d="M100.402 43.372c1.18.525 2.535.787 4.065.787 1.508 0 2.842-.262 4.001-.787 1.158-.525 2.12-1.257 2.884-2.197a7.55 7.55 0 0 0 1.541-3.213h-4.819c-.218.547-.634 1.005-1.246 1.377-.612.372-1.399.558-2.361.558-.595 0-1.128-.07-1.597-.212a3.56 3.56 0 0 1-.96-.444c-.656-.437-1.137-1.05-1.443-1.836a7.252 7.252 0 0 1-.369-1.476h13.123v-1.77c0-1.64-.349-3.148-1.049-4.524a8.401 8.401 0 0 0-3.049-3.378c-1.311-.874-2.929-1.311-4.853-1.311-1.464 0-2.776.262-3.934.787-1.136.502-2.087 1.19-2.852 2.065a9.575 9.575 0 0 0-1.771 2.984 10.089 10.089 0 0 0-.59 3.442v.656c0 1.159.197 2.295.59 3.41a10.101 10.101 0 0 0 1.77 2.983c.788.875 1.76 1.574 2.919 2.1Zm-.214-10.684a6.102 6.102 0 0 1 .312-1.02c.328-.81.809-1.422 1.443-1.837.237-.155.494-.281.769-.378a4.684 4.684 0 0 1 1.558-.245c.897 0 1.64.208 2.23.623.612.393 1.071.973 1.377 1.738a5.38 5.38 0 0 1 .172.5 6.922 6.922 0 0 1 .191.877h-8.102c.015-.088.032-.174.05-.258Z"/><path d="M115.386 43.536V25.568h4.164v4.526a9.404 9.404 0 0 1 .393-1.378c.459-1.224 1.148-2.142 2.066-2.754.918-.634 2.043-.95 3.377-.95h.229c1.356 0 2.481.316 3.377.95.918.612 1.607 1.53 2.066 2.754l.036.092.031.085.064-.177c.481-1.224 1.181-2.142 2.099-2.754.917-.634 2.043-.95 3.377-.95h.229c1.355 0 2.492.316 3.41.95.94.612 1.65 1.53 2.131 2.754.481 1.224.722 2.754.722 4.59v10.23h-5.247V33.01c0-.984-.262-1.781-.787-2.393-.502-.612-1.223-.918-2.163-.918-.94 0-1.683.317-2.23.95-.546.612-.82 1.432-.82 2.46v10.426h-5.278V33.01c0-.984-.263-1.781-.787-2.393-.503-.612-1.213-.918-2.131-.918-.962 0-1.716.317-2.263.95-.546.612-.82 1.432-.82 2.46v10.426h-5.245Z"/><path fill-rule="evenodd" clip-rule="evenodd" d="M157.17 40.074v3.462h4.163V32.519c0-1.66-.327-3.016-.983-4.065-.656-1.071-1.617-1.87-2.885-2.394-1.246-.524-2.787-.787-4.623-.787a62.247 62.247 0 0 0-2.033.033 61.67 61.67 0 0 0-2.098.099l-.518.034a76.099 76.099 0 0 0-1.253.097v4.426a188.67 188.67 0 0 1 2.954-.165 94.763 94.763 0 0 1 3.636-.097c.962 0 1.661.23 2.099.688.437.46.655 1.148.655 2.066v.065h-3.245c-1.596 0-3.006.208-4.23.623-1.224.394-2.175 1.017-2.852 1.87-.678.83-1.017 1.9-1.017 3.212 0 1.203.273 2.24.82 3.115.546.853 1.3 1.508 2.262 1.967.984.46 2.121.689 3.41.689 1.246 0 2.295-.23 3.148-.689a4.895 4.895 0 0 0 2.032-1.967 5.804 5.804 0 0 0 .516-1.138l.042-.127Zm-.886-3.194v-1.443h-3.278c-.918 0-1.628.23-2.131.689-.481.437-.722 1.038-.722 1.803 0 .36.06.688.18.982.121.296.301.559.542.789.503.437 1.213.655 2.131.655.174 0 .343-.008.506-.025.134-.014.263-.034.388-.06.241-.048.468-.118.68-.21.481-.218.874-.579 1.179-1.082.307-.503.482-1.202.525-2.098Z"/><path d="M164.473 43.536V25.57h4.164v5.93c.199-1.693.702-3.058 1.508-4.094 1.093-1.377 2.666-2.066 4.722-2.066h.688v4.525h-1.312c-1.442 0-2.557.393-3.344 1.18-.787.765-1.181 1.88-1.181 3.344v9.148h-5.245ZM182.207 35.142h1.738l5.671 8.394h5.902l-7.192-10.308 5.913-7.66h-5.507l-6.525 8.544v-14.51h-5.246v23.934h5.246v-8.394Z"/></g><defs><clipPath id="a"><path fill="#fff" transform="translate(21 18)" d="M0 0h175v27H0z"/></clipPath></defs></svg>
